X: 11364
M: C|
L: 1/8
K: Bm	% and D major
|:\
d>efd gef2 | d>ef>d f>ef>a |
d>ef>d gef2 | e>cA>B c>de>f |\
d>ef>d gef2 | d>efd f>ef>a |\
d>af>a d>ef>a | efdb cAce |]



